public/images/linkedin.svg

<svg fill="none" height="40" viewBox="0 0 40 40" width="40" xmlns="http://www.w3.org/2000/svg"><path d="m20 .5c10.7696 0 19.5 8.73045 19.5 19.5 0 10.7696-8.7304 19.5-19.5 19.5-10.76955 0-19.5-8.7304-19.5-19.5 0-10.76955 8.73045-19.5 19.5-19.5z" fill="#fff" fill-opacity=".1"/><path d="m20 .5c10.7696 0 19.5 8.73045 19.5 19.5 0 10.7696-8.7304 19.5-19.5 19.5-10.76955 0-19.5-8.7304-19.5-19.5 0-10.76955 8.73045-19.5 19.5-19.5z" stroke="#000"/><path d="m20 .5c10.7696 0 19.5 8.73045 19.5 19.5 0 10.7696-8.7304 19.5-19.5 19.5-10.76955 0-19.5-8.7304-19.5-19.5 0-10.76955 8.73045-19.5 19.5-19.5z" stroke="#000" stroke-opacity=".2"/><g stroke="#fff" stroke-linecap="round" stroke-linejoin="round" stroke-width="1.66667"><path d="m23.333 16.667c1.3261 0 2.5979.5268 3.5355 1.4645.9377.9376 1.4645 2.2094 1.4645 3.5355v5.8333h-3.3333v-5.8333c0-.442-.1756-.866-.4882-1.1785-.3125-.3126-.7365-.4882-1.1785-.4882s-.8659.1756-1.1785.4882c-.3126.3125-.4882.7365-.4882 1.1785v5.8333h-3.3333v-5.8333c0-1.3261.5268-2.5979 1.4645-3.5355.9377-.9377 2.2094-1.4645 3.5355-1.4645z"/><path d="m15.0003 17.5h-3.3333v10h3.3333z"/><path d="m13.3337 15.0003c.9204 0 1.6666-.7462 1.6666-1.6666 0-.9205-.7462-1.6667-1.6666-1.6667-.9205 0-1.6667.7462-1.6667 1.6667 0 .9204.7462 1.6666 1.6667 1.6666z"/></g></svg>

<svg width="40" height="40" viewBox="0 0 40 40" fill="none" xmlns="http://www.w3.org/2000/svg">
<path d="M20 0.5C30.7696 0.5 39.5 9.23045 39.5 20C39.5 30.7696 30.7696 39.5 20 39.5C9.23045 39.5 0.5 30.7696 0.5 20C0.5 9.23045 9.23045 0.5 20 0.5Z" fill="white" fill-opacity="0.1"/>
<path d="M20 0.5C30.7696 0.5 39.5 9.23045 39.5 20C39.5 30.7696 30.7696 39.5 20 39.5C9.23045 39.5 0.5 30.7696 0.5 20C0.5 9.23045 9.23045 0.5 20 0.5Z" stroke="black"/>
<path d="M20 0.5C30.7696 0.5 39.5 9.23045 39.5 20C39.5 30.7696 30.7696 39.5 20 39.5C9.23045 39.5 0.5 30.7696 0.5 20C0.5 9.23045 9.23045 0.5 20 0.5Z" stroke="black" stroke-opacity="0.2"/>
<path d="M23.333 16.667C24.6591 16.667 25.9309 17.1938 26.8685 18.1315C27.8062 19.0691 28.333 20.3409 28.333 21.667V27.5003H24.9997V21.667C24.9997 21.225 24.8241 20.801 24.5115 20.4885C24.199 20.1759 23.775 20.0003 23.333 20.0003C22.891 20.0003 22.4671 20.1759 22.1545 20.4885C21.8419 20.801 21.6663 21.225 21.6663 21.667V27.5003H18.333V21.667C18.333 20.3409 18.8598 19.0691 19.7975 18.1315C20.7352 17.1938 22.0069 16.667 23.333 16.667Z" stroke="white" stroke-width="1.66667" stroke-linecap="round" stroke-linejoin="round"/>
<path d="M15.0003 17.5H11.667V27.5H15.0003V17.5Z" stroke="white" stroke-width="1.66667" stroke-linecap="round" stroke-linejoin="round"/>
<path d="M13.3337 15.0003C14.2541 15.0003 15.0003 14.2541 15.0003 13.3337C15.0003 12.4132 14.2541 11.667 13.3337 11.667C12.4132 11.667 11.667 12.4132 11.667 13.3337C11.667 14.2541 12.4132 15.0003 13.3337 15.0003Z" stroke="white" stroke-width="1.66667" stroke-linecap="round" stroke-linejoin="round"/>
</svg>
